icons/v8-ignition.svg

<?xml version="1.0" encoding="UTF-8"?>
<svg width="256px" height="304px" viewBox="0 0 256 304" version="1.1" xmlns="http://www.w3.org/2000/svg" xmlns:xlink="http://www.w3.org/1999/xlink" preserveAspectRatio="xMidYMid">
    <defs>
        <linearGradient x1="-26.2598664%" y1="20.8818636%" x2="99.8664238%" y2="90.0099834%" id="linearGradient-1">
            <stop stop-color="#231F20" stop-opacity="0.16" offset="0%"></stop>
            <stop stop-color="#231F20" stop-opacity="0" offset="100%"></stop>
        </linearGradient>
        <radialGradient cx="10.5346913%" cy="0.168765068%" fx="10.5346913%" fy="0.168765068%" r="142.584341%" gradientTransform="translate(0.105347,0.001688),scale(1.000000,0.841682),translate(-0.105347,-0.001688)" id="radialGradient-2">
            <stop stop-color="#FFFFFF" stop-opacity="0.1" offset="0%"></stop>
            <stop stop-color="#FFFFFF" stop-opacity="0" offset="100%"></stop>
        </radialGradient>
    </defs>
		<g>
				<ellipse fill="#4285F4" cx="128" cy="156.840506" rx="127.270886" ry="125.488608"></ellipse>
				<path d="M128,280.303797 C58.0860759,280.303797 1.29620253,224.648101 0.729113924,155.787342 L0.729113924,156.759494 C0.729113924,226.025316 57.6810127,282.248101 128,282.248101 C198.318987,282.248101 255.270886,226.025316 255.270886,156.759494 L255.270886,155.787342 C254.703797,224.648101 197.913924,280.303797 128,280.303797 Z" fill="#263238" opacity="0.2"></path>
				<path d="M128,33.3772152 C197.913924,33.3772152 254.703797,89.0329114 255.270886,157.893671 L255.270886,156.921519 C255.270886,87.6556962 198.318987,31.4329114 128,31.4329114 C57.6810127,31.4329114 0.729113924,87.5746835 0.729113924,156.840506 L0.729113924,157.812658 C1.29620253,89.0329114 58.0860759,33.3772152 128,33.3772152 Z" fill="#FFFFFF" opacity="0.2"></path>
				<polygon fill="#424242" points="97.7822785 61.0835443 97.7822785 98.5924051 128 139.179747 158.217722 97.5392405 158.217722 61.0835443 193.944304 61.0835443 228.860759 0.648101266 27.2202532 0.648101266 62.0556962 61.0835443"></polygon>
				<path d="M90.0860759,61.0835443 L62.0556962,61.0835443 L72.0202532,78.3392405 L90.0860759,78.3392405 L90.0860759,61.0835443 Z M165.913924,78.3392405 L183.979747,78.3392405 L193.944304,61.0835443 L165.913924,61.0835443 L165.913924,78.3392405 Z" fill="#9E9E9E"></path>
				<polygon fill="#424242" points="158.217722 242.632911 158.217722 217.924051 128 176.44557 97.7822785 217.924051 97.7822785 242.632911 62.1367089 242.632911 27.1392405 303.068354 228.860759 303.068354 194.025316 242.632911"></polygon>
				<polygon fill="#263238" opacity="0.2" points="158.217722 94.4607595 128 136.182278 97.7822785 95.4329114 97.7822785 98.5924051 128 139.179747 158.217722 97.5392405"></polygon>
				<polygon fill="#FFFFFF" opacity="0.2" points="27.2202532 0.648101266 228.779747 0.648101266 227.564557 2.75443038 28.435443 2.75443038"></polygon>
				<path d="M97.7822785,221.002532 L128.081013,179.443038 L158.217722,221.002532 L158.217722,217.924051 L128.081013,176.44557 L97.7822785,217.843038 L97.7822785,221.002532 Z M228.779747,302.987342 L27.2202532,302.987342 L28.435443,300.8 L227.564557,300.8 L228.779747,302.987342 Z" fill="#263238" opacity="0.2"></path>
				<path d="M228.779747,302.987342 L227.564557,300.8 L203.017722,258.187342 C229.022785,239.473418 247.493671,211.281013 253.326582,178.794937 L135.696203,59.6253165 L119.898734,245.549367 L175.716456,302.987342 L228.860759,303.068354 L228.779747,302.987342 Z" fill="url(#linearGradient-1)"></path>
				<polygon fill="#E8E8E8" points="135.696203 59.6253165 78.9873418 173.124051 120.141772 173.124051 119.898734 245.549367 177.336709 131.402532 135.453165 131.402532"></polygon>
				<polygon fill="#FFFFFF" points="135.696203 59.6253165 80.0405063 171.098734 120.141772 171.098734 119.898734 243.524051 176.283544 131.402532 135.453165 131.402532"></polygon>
				<path d="M97.7822785,61.0835443 L62.0556962,61.0835443 L72.0202532,78.3392405 L97.7822785,78.3392405 L97.7822785,61.0835443 Z M158.217722,78.3392405 L183.979747,78.3392405 L193.944304,61.0835443 L158.217722,61.0835443 L158.217722,78.3392405 Z" fill="#9E9E9E"></path>
				<path d="M158.217722,76.3139241 L158.217722,78.3392405 L183.979747,78.3392405 L185.194937,76.2329114 L158.217722,76.3139241 Z M97.7822785,76.3139241 L70.8050633,76.2329114 L72.0202532,78.3392405 L97.7822785,78.3392405 L97.7822785,76.3139241 Z" fill="#263238" opacity="0.3"></path>
				<path d="M255.270886,157.812658 L255.270886,156.840506 C255.270886,113.417722 232.83038,75.0987342 198.805063,52.5772152 L228.860759,0.648101266 L27.2202532,0.648101266 L57.1949367,52.5772152 C23.1696203,75.0987342 0.729113924,113.417722 0.729113924,156.840506 L0.729113924,157.812658 C1.05316456,199.048101 21.6303797,235.58481 53.0632911,258.268354 L28.435443,300.8 L27.2202532,302.987342 L27.1392405,303.068354 L228.779747,303.068354 L228.698734,302.987342 L227.483544,300.8 L202.936709,258.187342 C234.450633,235.58481 254.946835,199.129114 255.270886,157.812658 Z" fill="url(#radialGradient-2)"></path>
		</g>
</svg>

<svg xmlns="http://www.w3.org/2000/svg" viewBox="0 0 254.542 302.42">
  <defs>
    <radialGradient id="b" cx="30.023" cy="1.063" r="395.6" fx="30.023" fy="1.063" gradientTransform="scale(.91743 1.09)" gradientUnits="userSpaceOnUse">
      <stop offset="0%" stop-color="#FFF" stop-opacity=".1"/>
      <stop offset="100%" stop-color="#FFF" stop-opacity="0"/>
    </radialGradient>
    <linearGradient id="a" x1="114.626" x2="341.94" y1="81.777" y2="206.365" gradientTransform="scale(.74033 1.35075)" gradientUnits="userSpaceOnUse">
      <stop offset="0%" stop-color="#231F20" stop-opacity=".16"/>
      <stop offset="100%" stop-color="#231F20" stop-opacity="0"/>
    </linearGradient>
  </defs>
  <g transform="translate(-.73 -.648)">
    <ellipse cx="128" cy="156.84" fill="#4285f4" rx="127.271" ry="125.489"/>
    <path fill="#263238" d="M128 280.304c-69.914 0-126.704-55.656-127.27-124.517v.972C.73 226.025 57.68 282.25 128 282.25c70.319 0 127.27-56.224 127.27-125.49v-.972c-.566 68.861-57.356 124.517-127.27 124.517z" opacity=".2"/>
    <path fill="#fff" d="M128 33.377c69.914 0 126.704 55.656 127.27 124.517v-.972c0-69.266-56.951-125.49-127.27-125.49C57.681 31.433.73 87.576.73 156.842v.972C1.295 89.033 58.085 33.377 128 33.377z" opacity=".2"/>
    <path fill="#424242" d="m128 139.18 30.218-41.64V61.083h35.726L228.861.648H27.22l34.835 60.436h35.726v37.508z"/>
    <path fill="#9e9e9e" d="M90.086 61.084h-28.03l9.964 17.255h18.066zm75.828 17.255h18.066l9.964-17.255h-28.03z"/>
    <path fill="#424242" d="m128 176.446-30.218 41.478v24.709H62.137l-34.998 60.435h201.722l-34.836-60.435h-35.807v-24.709z"/>
    <path fill="#263238" d="M97.782 95.433v3.16L128 139.18l30.218-41.64v-3.08L128 136.183z" opacity=".2"/>
    <path fill="#fff" d="M227.565 2.754H28.435L27.22.648h201.56z" opacity=".2"/>
    <path fill="#263238" d="m97.782 221.003 30.299-41.56 30.137 41.56v-3.079l-30.137-41.478-30.299 41.397zm130.998 81.984H27.22l1.215-2.187h199.13z" opacity=".2"/>
    <path fill="url(#a)" d="m228.78 302.987-1.215-2.187-24.547-42.613c26.005-18.714 44.476-46.906 50.309-79.392l-117.63-119.17-15.798 185.924 55.817 57.438 53.145.081z" style="fill:url(#a)"/>
    <path fill="#e8e8e8" d="m120.142 173.124-.243 72.425 57.438-114.146h-41.884l.243-71.778-56.709 113.5z"/>
    <path fill="#fff" d="m120.142 171.099-.243 72.425 56.385-112.121h-40.83l.242-71.778L80.041 171.1z"/>
    <path fill="#9e9e9e" d="M97.782 61.084H62.056l9.964 17.255h25.762zm60.436 17.255h25.762l9.964-17.255h-35.726z"/>
    <path fill="#263238" d="M158.218 76.314v2.025h25.762l1.215-2.106zm-60.436 0-26.977-.081 1.215 2.106h25.762z" opacity=".3"/>
    <path fill="url(#b)" d="M255.27 157.813v-.972c0-43.423-22.44-81.742-56.465-104.264L228.861.648H27.22l29.974 51.93C23.17 75.097.729 113.417.729 156.84v.972c.324 41.235 20.901 77.772 52.334 100.455L28.435 300.8l-1.215 2.187-.08.081h201.64l-.081-.08-1.215-2.188-24.547-42.613c31.514-22.602 52.01-59.058 52.334-100.374z" style="fill:url(#b)"/>
  </g>
</svg>
